X:39
M:2/4
L:1/8
K:A
|:e|g/b/a/b/ g/a/f/g/|e^def|gfga|b/a/g/f/ ee|g/b/a/b/ g/a/f/g/|e^dea|(3g/f/e/ (3a/g/f/ "tr"f2|e3 A|
c/e/d/e/ c/d/B/c/|AGAB|cBcd|e/d/c/B/ A/c/B/A/|c/e/d/e/ c/d/B/c/|AGAd|(3c/B/A/ (3d/c/B/ "tr"B2|A3:|

